X:222
T: Die verkaufte Muellerin
N: Q0086U
O: Mitteleuropa, Deutschland (DDR) , Brandenburg
N: Schlusspause korrigiert.
R: Ballade, Menschenhandel, Rettung, Hinrichtung
M: 3/4
L: 1/8
K: G
d2 | BdGGd2 | BdG2z
G | eeg2e2 | edd2z
d | eeg2e2 | edd2z
d | eeg2e2 | edd2

@@@ Tune index: 1277
